storage/app/icons/phosphoricons/regular/jar.svg

<svg xmlns="http://www.w3.org/2000/svg" fill="currentColor" viewBox="0 0 256 256"><path d="M184 48.81V32a16 16 0 0 0-16-16H88a16 16 0 0 0-16 16v16.81A40.05 40.05 0 0 0 40 88v112a40 40 0 0 0 40 40h96a40 40 0 0 0 40-40V88a40.05 40.05 0 0 0-32-39.19M168 48h-16V32h16Zm-48 0V32h16v16Zm-16-16v16H88V32Zm96 168a24 24 0 0 1-24 24H80a24 24 0 0 1-24-24V88a24 24 0 0 1 24-24h96a24 24 0 0 1 24 24Z"/></svg>

<svg xmlns="http://www.w3.org/2000/svg" viewBox="0 0 256 256" fill="currentColor"><path d="M184,48.81V32a16,16,0,0,0-16-16H88A16,16,0,0,0,72,32V48.81A40.05,40.05,0,0,0,40,88V200a40,40,0,0,0,40,40h96a40,40,0,0,0,40-40V88A40.05,40.05,0,0,0,184,48.81ZM168,48H152V32h16Zm-48,0V32h16V48ZM104,32V48H88V32Zm96,168a24,24,0,0,1-24,24H80a24,24,0,0,1-24-24V88A24,24,0,0,1,80,64h96a24,24,0,0,1,24,24Z"/></svg>
